dist/img/menu/menu-icon4.svg

<svg width="21" height="24" viewBox="0 0 21 24" fill="none" xmlns="http://www.w3.org/2000/svg">
<path d="M18.9221 1H2.30234C1.5842 1 1 1.58425 1 2.30234V21.6976C1 22.4158 1.58425 23 2.30234 23H18.9221C19.6402 23 20.2244 22.4157 20.2244 21.6976V2.30234C20.2244 1.58425 19.6402 1 18.9221 1ZM2.04186 2.30234C2.04186 2.15874 2.1587 2.04186 2.30234 2.04186H18.9221C19.0657 2.04186 19.1825 2.1587 19.1825 2.30234V6.81836H2.04186V2.30234ZM7.06083 21.9581H2.30234C2.15874 21.9581 2.04186 21.8412 2.04186 21.6976V15.4287H7.06083V21.9581ZM7.06083 14.3869H2.04186V7.86026H7.06083V14.3869ZM13.1217 21.9581H8.10269V15.4287H13.1217V21.9581ZM13.1217 14.3869H8.10269V7.86026H13.1217V14.3869ZM19.1825 21.6976C19.1825 21.8412 19.0656 21.9581 18.9221 21.9581H14.1635V7.86026H19.1825V21.6976Z" fill="#BFC0C4"/>
<path d="M5.83924 10.6027H5.07225V9.83566C5.07225 9.54795 4.83902 9.31471 4.5513 9.31471C4.26358 9.31471 4.03035 9.54795 4.03035 9.83566V10.6027H3.26335C2.97563 10.6027 2.7424 10.8359 2.7424 11.1236C2.7424 11.4113 2.97563 11.6446 3.26335 11.6446H4.03035V12.4116C4.03035 12.6993 4.26358 12.9326 4.5513 12.9326C4.83902 12.9326 5.07225 12.6993 5.07225 12.4116V11.6446H5.83924C6.12696 11.6446 6.3602 11.4113 6.3602 11.1236C6.3602 10.8359 6.12696 10.6027 5.83924 10.6027Z" fill="#BFC0C4"/>
<path d="M11.9259 10.6027H9.29844C9.01072 10.6027 8.77749 10.8359 8.77749 11.1236C8.77749 11.4113 9.01072 11.6446 9.29844 11.6446H11.9259C12.2135 11.6446 12.4468 11.4113 12.4468 11.1236C12.4468 10.8359 12.2135 10.6027 11.9259 10.6027Z" fill="#BFC0C4"/>
<path d="M5.28802 18.6948L5.91687 18.0659C6.12028 17.8625 6.12028 17.5327 5.91687 17.3292C5.71345 17.1258 5.38358 17.1258 5.18008 17.3292L4.55123 17.958L3.92239 17.3292C3.71897 17.1258 3.3891 17.1258 3.1856 17.3292C2.98219 17.5326 2.98219 17.8624 3.1856 18.0659L3.81449 18.6948L3.18564 19.3236C2.98223 19.5271 2.98223 19.8569 3.18564 20.0603C3.28739 20.1621 3.42068 20.2129 3.55401 20.2129C3.6873 20.2129 3.82068 20.1621 3.92239 20.0603L4.55123 19.4315L5.18008 20.0603C5.28183 20.1621 5.41512 20.2129 5.54845 20.2129C5.68179 20.2129 5.81512 20.1621 5.91682 20.0603C6.12024 19.8569 6.12024 19.5271 5.91682 19.3236L5.28802 18.6948Z" fill="#BFC0C4"/>
<path d="M11.9776 17.3292C11.7741 17.1258 11.4444 17.1258 11.2408 17.3292L9.24637 19.3236C9.04299 19.5271 9.04299 19.8569 9.24641 20.0604C9.34816 20.1621 9.48145 20.213 9.61478 20.213C9.74811 20.213 9.88145 20.1621 9.98315 20.0604L11.9776 18.066C12.181 17.8625 12.181 17.5327 11.9776 17.3292Z" fill="#BFC0C4"/>
<path d="M9.61468 18.1421C9.8601 18.1421 10.0591 17.9431 10.0591 17.6977C10.0591 17.4523 9.8601 17.2533 9.61468 17.2533C9.36925 17.2533 9.1703 17.4523 9.1703 17.6977C9.1703 17.9431 9.36925 18.1421 9.61468 18.1421Z" fill="#BFC0C4"/>
<path d="M11.6094 20.1362C11.8548 20.1362 12.0537 19.9373 12.0537 19.6919C12.0537 19.4465 11.8548 19.2476 11.6094 19.2476C11.364 19.2476 11.1651 19.4465 11.1651 19.6919C11.1651 19.9373 11.364 20.1362 11.6094 20.1362Z" fill="#BFC0C4"/>
<path d="M17.9892 13.4791H15.3264C15.0387 13.4791 14.8054 13.7123 14.8054 14.0001C14.8054 14.2877 15.0387 14.521 15.3264 14.521H17.9892C18.2769 14.521 18.5102 14.2877 18.5102 14.0001C18.5102 13.7123 18.2769 13.4791 17.9892 13.4791Z" fill="#BFC0C4"/>
<path d="M17.9892 15.2974H15.3264C15.0387 15.2974 14.8054 15.5307 14.8054 15.8183C14.8054 16.106 15.0387 16.3393 15.3264 16.3393H17.9892C18.2769 16.3393 18.5102 16.106 18.5102 15.8183C18.5102 15.5307 18.2769 15.2974 17.9892 15.2974Z" fill="#BFC0C4"/>
<path d="M18.9221 1H2.30234C1.5842 1 1 1.58425 1 2.30234V21.6976C1 22.4158 1.58425 23 2.30234 23H18.9221C19.6402 23 20.2244 22.4157 20.2244 21.6976V2.30234C20.2244 1.58425 19.6402 1 18.9221 1ZM2.04186 2.30234C2.04186 2.15874 2.1587 2.04186 2.30234 2.04186H18.9221C19.0657 2.04186 19.1825 2.1587 19.1825 2.30234V6.81836H2.04186V2.30234ZM7.06083 21.9581H2.30234C2.15874 21.9581 2.04186 21.8412 2.04186 21.6976V15.4287H7.06083V21.9581ZM7.06083 14.3869H2.04186V7.86026H7.06083V14.3869ZM13.1217 21.9581H8.10269V15.4287H13.1217V21.9581ZM13.1217 14.3869H8.10269V7.86026H13.1217V14.3869ZM19.1825 21.6976C19.1825 21.8412 19.0656 21.9581 18.9221 21.9581H14.1635V7.86026H19.1825V21.6976Z" stroke="#BFC0C4" stroke-width="0.2"/>
<path d="M5.83924 10.6027H5.07225V9.83566C5.07225 9.54795 4.83902 9.31471 4.5513 9.31471C4.26358 9.31471 4.03035 9.54795 4.03035 9.83566V10.6027H3.26335C2.97563 10.6027 2.7424 10.8359 2.7424 11.1236C2.7424 11.4113 2.97563 11.6446 3.26335 11.6446H4.03035V12.4116C4.03035 12.6993 4.26358 12.9326 4.5513 12.9326C4.83902 12.9326 5.07225 12.6993 5.07225 12.4116V11.6446H5.83924C6.12696 11.6446 6.3602 11.4113 6.3602 11.1236C6.3602 10.8359 6.12696 10.6027 5.83924 10.6027Z" stroke="#BFC0C4" stroke-width="0.2"/>
<path d="M11.9259 10.6027H9.29844C9.01072 10.6027 8.77749 10.8359 8.77749 11.1236C8.77749 11.4113 9.01072 11.6446 9.29844 11.6446H11.9259C12.2135 11.6446 12.4468 11.4113 12.4468 11.1236C12.4468 10.8359 12.2135 10.6027 11.9259 10.6027Z" stroke="#BFC0C4" stroke-width="0.2"/>
<path d="M5.28802 18.6948L5.91687 18.0659C6.12028 17.8625 6.12028 17.5327 5.91687 17.3292C5.71345 17.1258 5.38358 17.1258 5.18008 17.3292L4.55123 17.958L3.92239 17.3292C3.71897 17.1258 3.3891 17.1258 3.1856 17.3292C2.98219 17.5326 2.98219 17.8624 3.1856 18.0659L3.81449 18.6948L3.18564 19.3236C2.98223 19.5271 2.98223 19.8569 3.18564 20.0603C3.28739 20.1621 3.42068 20.2129 3.55401 20.2129C3.6873 20.2129 3.82068 20.1621 3.92239 20.0603L4.55123 19.4315L5.18008 20.0603C5.28183 20.1621 5.41512 20.2129 5.54845 20.2129C5.68179 20.2129 5.81512 20.1621 5.91682 20.0603C6.12024 19.8569 6.12024 19.5271 5.91682 19.3236L5.28802 18.6948Z" stroke="#BFC0C4" stroke-width="0.2"/>
<path d="M11.9776 17.3292C11.7741 17.1258 11.4444 17.1258 11.2408 17.3292L9.24637 19.3236C9.04299 19.5271 9.04299 19.8569 9.24641 20.0604C9.34816 20.1621 9.48145 20.213 9.61478 20.213C9.74811 20.213 9.88145 20.1621 9.98315 20.0604L11.9776 18.066C12.181 17.8625 12.181 17.5327 11.9776 17.3292Z" stroke="#BFC0C4" stroke-width="0.2"/>
<path d="M9.61468 18.1421C9.8601 18.1421 10.0591 17.9431 10.0591 17.6977C10.0591 17.4523 9.8601 17.2533 9.61468 17.2533C9.36925 17.2533 9.1703 17.4523 9.1703 17.6977C9.1703 17.9431 9.36925 18.1421 9.61468 18.1421Z" stroke="#BFC0C4" stroke-width="0.2"/>
<path d="M11.6094 20.1362C11.8548 20.1362 12.0537 19.9373 12.0537 19.6919C12.0537 19.4465 11.8548 19.2476 11.6094 19.2476C11.364 19.2476 11.1651 19.4465 11.1651 19.6919C11.1651 19.9373 11.364 20.1362 11.6094 20.1362Z" stroke="#BFC0C4" stroke-width="0.2"/>
<path d="M17.9892 13.4791H15.3264C15.0387 13.4791 14.8054 13.7123 14.8054 14.0001C14.8054 14.2877 15.0387 14.521 15.3264 14.521H17.9892C18.2769 14.521 18.5102 14.2877 18.5102 14.0001C18.5102 13.7123 18.2769 13.4791 17.9892 13.4791Z" stroke="#BFC0C4" stroke-width="0.2"/>
<path d="M17.9892 15.2974H15.3264C15.0387 15.2974 14.8054 15.5307 14.8054 15.8183C14.8054 16.106 15.0387 16.3393 15.3264 16.3393H17.9892C18.2769 16.3393 18.5102 16.106 18.5102 15.8183C18.5102 15.5307 18.2769 15.2974 17.9892 15.2974Z" stroke="#BFC0C4" stroke-width="0.2"/>
</svg>

<svg width="21" height="24" fill="none" xmlns="http://www.w3.org/2000/svg"><path d="M18.922 1H2.302C1.584 1 1 1.584 1 2.302v19.396C1 22.416 1.584 23 2.302 23h16.62c.718 0 1.302-.584 1.302-1.302V2.302c0-.718-.584-1.302-1.302-1.302zM2.042 2.302a.26.26 0 01.26-.26h16.62a.26.26 0 01.26.26v4.516H2.043V2.302zM7.06 21.958H2.302a.26.26 0 01-.26-.26v-6.27H7.06v6.53zm0-7.571H2.04V7.86h5.02v6.527zm6.06 7.571H8.104v-6.53h5.019v6.53zm0-7.571H8.104V7.86h5.019v6.527zm6.062 7.31a.26.26 0 01-.26.261h-4.76V7.86h5.02v13.838z" fill="#BFC0C4"/><path d="M5.84 10.603h-.768v-.767a.52.52 0 10-1.042 0v.767h-.767a.52.52 0 100 1.042h.767v.767a.521.521 0 101.042 0v-.767h.767a.521.521 0 000-1.042zm6.086 0H9.298a.52.52 0 100 1.042h2.628a.521.521 0 000-1.042zm-6.638 8.092l.629-.63a.521.521 0 00-.737-.736l-.629.629-.629-.629a.521.521 0 00-.736.737l.628.629-.628.629a.521.521 0 00.736.736l.63-.628.628.628a.52.52 0 00.737 0 .521.521 0 000-.736l-.629-.63zm6.69-1.365a.521.521 0 00-.737 0l-1.995 1.994a.521.521 0 00.737.736l1.995-1.994a.521.521 0 000-.737zm-2.363.812a.444.444 0 100-.889.444.444 0 000 .89zm1.995 1.994a.444.444 0 100-.888.444.444 0 000 .888zm6.38-6.656h-2.664a.521.521 0 100 1.041h2.663a.521.521 0 000-1.042zm0 1.817h-2.664a.521.521 0 000 1.042h2.663a.521.521 0 000-1.042z" fill="#BFC0C4"/><path d="M18.922 1H2.302C1.584 1 1 1.584 1 2.302v19.396C1 22.416 1.584 23 2.302 23h16.62c.718 0 1.302-.584 1.302-1.302V2.302c0-.718-.584-1.302-1.302-1.302zM2.042 2.302a.26.26 0 01.26-.26h16.62a.26.26 0 01.26.26v4.516H2.043V2.302zM7.06 21.958H2.302a.26.26 0 01-.26-.26v-6.27H7.06v6.53zm0-7.571H2.04V7.86h5.02v6.527zm6.06 7.571H8.104v-6.53h5.019v6.53zm0-7.571H8.104V7.86h5.019v6.527zm6.062 7.31a.26.26 0 01-.26.261h-4.76V7.86h5.02v13.838z" stroke="#BFC0C4" stroke-width=".2"/><path d="M5.84 10.603h-.768v-.767a.52.52 0 10-1.042 0v.767h-.767a.52.52 0 100 1.042h.767v.767a.521.521 0 101.042 0v-.767h.767a.521.521 0 000-1.042zm6.086 0H9.298a.52.52 0 100 1.042h2.628a.521.521 0 000-1.042zm-6.638 8.092l.629-.63a.521.521 0 00-.737-.736l-.629.629-.629-.629a.521.521 0 00-.736.737l.628.629-.628.629a.521.521 0 00.736.736l.63-.628.628.628a.52.52 0 00.737 0 .521.521 0 000-.736l-.629-.63zm6.69-1.365a.521.521 0 00-.737 0l-1.995 1.994a.521.521 0 00.737.736l1.995-1.994a.521.521 0 000-.737zm-2.363.812a.444.444 0 100-.889.444.444 0 000 .89zm1.995 1.994a.444.444 0 100-.888.444.444 0 000 .888zm6.38-6.656h-2.664a.521.521 0 100 1.041h2.663a.521.521 0 000-1.042zm0 1.817h-2.664a.521.521 0 000 1.042h2.663a.521.521 0 000-1.042z" stroke="#BFC0C4" stroke-width=".2"/></svg>
